build/system/SmallArrowLeftOutline.svg

<svg xmlns="http://www.w3.org/2000/svg" fill="none" viewBox="0 0 24 24" focusable="false"><path d="M0 0H24V24H0z"/><path fill="#74767B" fill-rule="evenodd" d="M14.0038 7.78894C14.1838 7.78894 14.3538 7.85894 14.4838 7.99894C14.7238 8.26894 14.7038 8.67894 14.4438 8.91894L10.9506 12.0652L14.4399 15.083C14.7099 15.323 14.7199 15.733 14.4799 16.003C14.2399 16.263 13.8299 16.283 13.5599 16.043L9.58064 12.5852C9.27064 12.3052 9.27064 11.8252 9.58064 11.5452L13.5638 7.95894C13.6938 7.83894 13.8438 7.78894 14.0038 7.78894Z"/></svg>

<svg xmlns="http://www.w3.org/2000/svg" fill="none" viewBox="0 0 24 24" focusable="false"><path fill="#74767B" fill-rule="evenodd" d="M14 7.78c.18 0 .35.07.48.21.24.27.22.68-.04.92l-3.49 3.15 3.48 3.02c.28.24.28.65.05.92-.25.26-.65.28-.92.04l-3.98-3.46a.7.7 0 0 1 0-1.04l3.98-3.59c.13-.12.28-.17.44-.17"/></svg>
